X:1
T:Will You Come to Jesus?
T:Will You Come to Jesus?
T:John Marchant Whyte
T:John Marchant Whyte, 1889
T:Public Domain Courtesy of the Cyber Hymnal™
T:Public Domain Courtesy of the Cyber Hymnal™
C:John Marchant Whyte
Z:Public Domain
Z:Courtesy of the Cyber Hymnal™
%%score ( 1 2 ) 3
L:1/8
Q:1/4=103
M:4/4
K:Eb
V:1 treble 
V:2 treble 
V:3 bass 
V:1
 E2 | [EG]2 [EG]2 [EG]2 [B,F][B,E] | [B,F]2 [B,E]2 [B,E]2 [EG]2 | [GB]2 [GB]2 [GB]2 [EG]E | %4
w: 1.~Oh,|why thus stand with re-|luct- ant feet Just|on the verge of the|
w: 2.~The|Spir- it strives, and yet|there you stand In|sight of bliss and the|
w: 3.~Your|loved ones gone to the|oth- er shore With|un- seen hands seem to|
w: 4.~The|touch of death is up-|on your frame, The|mar- ble slab soon will|
 [EG]2 [DF]2 [DF]2 [EG]2 | [EB]2 [EB]2 [EB]2 [Ge][Ge] | [Ae]2 [Ae]2 !fermata![Ec]2 [Ac][Ac] | %7
w: rest so sweet? While|God in- vites, and your|steps will greet, Will you|
w: glor- y- land; Re-|treat is death in the|sink- ing sand, Will you|
w: beck- on o’er; Their|voic- es hushed, yet they|still im- plore, Will you|
w: bear your name; Lest|you should suf- fer e-|ter- nal shame, Will you|
 [GB]2 [GB]2 [FA]2 [DF]2 | E6 ||"^Refrain" E>[DF] | [EG]6 [DF]2 | [FA]2 [EG]4 [EG]>[FA] | %12
w: come to Je- sus|now?||||
w: come to Je- sus|now?|Will you|come to|Je- sus? Will you|
w: come to Je- sus|now?||||
w: come to Je- sus|now?||||
 [GB]6 [EG]2 | [Ac]2 [GB]4 [GB]>[GB] | [Ge]6 [GB]2 | [Bd]2 [Ac]4 [Ac]>[Ac] | %16
w: ||||
w: come to|Je- sus? Will you|come to|Je- sus? Will you|
w: ||||
w: ||||
 [GB]2 [GB]2 [FA]2 [DF]2 | E6 |] %18
w: ||
w: come to Je- sus|now?|
w: ||
w: ||
V:2
 E2 | x8 | x8 | x7 E | x8 | x8 | x8 | x8 | E6 || E3/2 x/ | x8 | x8 | x8 | x8 | x8 | x8 | x8 | E6 |] %18
V:3
 [E,G,]2 | [E,B,]2 [E,B,]2 [E,B,]2 [E,A,][E,G,] | [B,,A,]2 [E,G,]2 [E,G,]2 [E,B,]2 | %3
w: ~|~ ~ ~ ~ ~|~ ~ ~ ~|
 [E,E]2 [E,E]2 [E,E]2 [E,B,][E,G,] | [B,,B,]2 [B,,B,]2 [B,,B,]2 [E,B,]2 | %5
w: ~ ~ ~ ~ ~|~ ~ ~ ~|
 [E,G,]2 [E,G,]2 [E,G,]2 [E,B,][E,B,] | [A,C]2 [A,C]2 !fermata![A,,A,]2 [A,,E][A,,E] | %7
w: ~ ~ ~ ~ ~|~ ~ ~ ~ ~|
 [A,,E]2 [A,,E]2 [B,,B,]2 [B,,A,]2 | [E,G,]6 || z2 | z2 [E,B,]>[E,B,] [E,B,]2 [B,,B,]2 | %11
w: ~ ~ ~ ~|~||Will you come to|
 [B,,B,][B,,B,] [E,B,]>[E,B,] [E,B,]2 z2 | z2 [E,E]>[E,E] [E,B,]2 [E,B,]2 | %13
w: Je- sus, will you come?|Will you come to|
 [A,,E][A,,E] [E,E]>[E,E] [E,E]2 z2 | z2 [E,B,]>[E,B,] [E,B,]2 [E,E]2 | %15
w: Je- sus, will you come?|Will you come to|
 [A,,E][A,,E] [A,,E]>[A,,E] [A,,E]2 [A,,E]>[A,,E] | [B,,E]2 [B,,E]2 [B,,B,]2 [B,,A,]2 | [E,G,]6 |] %18
w: Je- sus, will you come? * *|||

